X:1
T:James Gibb editions
T:O Word of God incarnate - Barnby
%%score [ ( 1 2 ) ( 3 4 ) ]
L:1/8
Q:1/4=100
M:4/4
K:Eb
V:1 treble nm="Midi_74"
V:2 treble 
V:3 bass nm="Midi_74"
V:4 bass 
V:1
"^Wakefield (76. 76. D)""^William Walsham How\n(1823-97)""^O Word of God incarnate""^Joseph Barnby\n(1838-96)" e2 | %1
 d2 B2 A2 c2 | B4 G2 || B2 | B2 A2 G2 F2 | B4 || e4 | d2 B2 A2"^1" c2 | B4 G2 || G2 | %10
 F2 B2 =A2 c2 | B6 ||[M:4/4] B2 | B3 B c2 d2 | e4 B2 || B2 | B2 G2 A2 B2 | c6 || c2 | c2 c2 c2 f2 | %20
 f4 B2 || c2 | G2- B2 A2 F2 | E6 || A4 G4 |] %25
V:2
 G2 | F2 D2 C2 D2 | E4 E2 || G2 | F2 E2 E2 D2 | E4 || G4 | G2 G2 E2 D2 | E4 B,2 || C2 | %10
 D2 F2 F2 E2 | D6 ||[M:4/4] B,2 | D3 D E2 F2 | E4 G2 || F2 | E2 E2 E2 _D2 | C6 || E2 | %19
 =E2 E2 F2 A2 | A4 G2 || E2 | E2 E2 D2 D2 | E6 || E4 E4 |] %25
V:3
 B,2 | A,2 B,2 C2 A,2 | G,4 B,2 || E2 | D2 C2 B,2 B,2 | B,4 || C4 | B,2 D2 C2 F,2 | G,4 B,2 || %9
 B,2 | B,2 D2 C2 =A,2 | B,6 ||[M:4/4] B,2 | %13
"^1 O Word of God incarnate,\nO Wisdom from on high,\nO Truth, unchanged, unchanging,\nO Light of our dark sky!\nWe praise Thee for the radiance\nthat from the hallowed page,\na lantern to our footsteps,\nshines on from age to age.\n\n2 The church from her dear Master\nreceived the gift divine,\nand still that light she lifteth\no'er all the earth to shine.\nIt is the golden casket\nwhere gems of truth are stored;\nit is the heav'n-drawn picture\nOf Christ, the living Word." B,3 B, B,2 A,2 | %14
 B,4 B,2 || A,2 | G,2 B,2 A,2 G,2 | A,6 || C2 | %19
"^3 It floateth like a banner\nbefore God's host unfurled;\nit shineth like a beacon\nabove the darkling world;\nit is the chart and compass\nthat o'er life's surging sea,\nmid mists and rocks and quicksands,\nstill guides, O Christ, to Thee.\n\n4 O make Thy Church, dear Saviour,\na lamp of burnished gold,\nto bear before the nations\nThy true light as of old;\nO teach Thy wand'ring pilgrims\nby this, their path to trace,\ntill, clouds and darkness ended,\nThey see Thee face to face." B,2 B,2 A,2 C2 | %20
 B,4 B,2 || F,2 | B,2 G,2 F,2 A,2 | G,6 || C4 B,4 |] %25
V:4
 E,2 | B,,2 B,,2 B,,2 B,,2 | E,4 E,2 || E,2 | E,2 E,2 E,2 A,2 | G,4 || C,4 | G,,2 G,,2 A,,2 A,,2 | %8
 E,4 E,2 || =E,2 | F,2 F,2 F,2 F,2 | B,6 ||[M:4/4] B,2 | A,3 A, G,2 F,2 | G,4 E,2 || E,2 | %16
 E,2 _D,2 C,2 B,,2 | A,,6 || A,2 | G,2 C,2 F,2 E,2 | D,4 E,2 || A,,2 | B,,2 B,,2 B,,2 B,,2 | E,6 || %24
 A,,4 E,4 |] %25

